svgs/thin/hospitals.svg

<svg xmlns="http://www.w3.org/2000/svg" viewBox="0 0 576 512"><!--! Font Awesome Pro 6.6.0 by @fontawesome - https://fontawesome.com License - https://fontawesome.com/license (Commercial License) Copyright 2024 Fonticons, Inc. --><path d="M256 56c0-30.9 25.1-56 56-56L520 0c30.9 0 56 25.1 56 56l0 400c0 30.9-25.1 56-56 56l-216 0c3.7-4.9 6.8-10.3 9.3-16L520 496c22.1 0 40-17.9 40-40l0-56-232 0c-4.4 0-8-3.6-8-8s3.6-8 8-8l232 0 0-80-232 0c-4.4 0-8-3.6-8-8s3.6-8 8-8l232 0 0-232c0-22.1-17.9-40-40-40L312 16c-22.1 0-40 17.9-40 40l0 8c0 2.2-.9 4.2-2.4 5.7c-4.3-1.7-8.8-3.1-13.5-4c-.1-.5-.2-1.1-.2-1.6l0-8zM64 112c-26.5 0-48 21.5-48 48l0 192 256 0 0-192c0-26.5-21.5-48-48-48L64 112zM16 368l0 48 256 0 0-48L16 368zm256 64L16 432l0 16c0 26.5 21.5 48 48 48l160 0c26.5 0 48-21.5 48-48l0-16zM0 160c0-35.3 28.7-64 64-64l160 0c35.3 0 64 28.7 64 64l0 288c0 35.3-28.7 64-64 64L64 512c-35.3 0-64-28.7-64-64L0 160zm112 32c0-13.3 10.7-24 24-24l16 0c13.3 0 24 10.7 24 24l0 16 16 0c13.3 0 24 10.7 24 24l0 16c0 13.3-10.7 24-24 24l-16 0 0 16c0 13.3-10.7 24-24 24l-16 0c-13.3 0-24-10.7-24-24l0-16-16 0c-13.3 0-24-10.7-24-24l0-16c0-13.3 10.7-24 24-24l16 0 0-16zm24-8c-4.4 0-8 3.6-8 8l0 24c0 4.4-3.6 8-8 8l-24 0c-4.4 0-8 3.6-8 8l0 16c0 4.4 3.6 8 8 8l24 0c4.4 0 8 3.6 8 8l0 24c0 4.4 3.6 8 8 8l16 0c4.4 0 8-3.6 8-8l0-24c0-4.4 3.6-8 8-8l24 0c4.4 0 8-3.6 8-8l0-16c0-4.4-3.6-8-8-8l-24 0c-4.4 0-8-3.6-8-8l0-24c0-4.4-3.6-8-8-8l-16 0zM424 72l16 0c13.3 0 24 10.7 24 24l0 16 16 0c13.3 0 24 10.7 24 24l0 16c0 13.3-10.7 24-24 24l-16 0 0 16c0 13.3-10.7 24-24 24l-16 0c-13.3 0-24-10.7-24-24l0-16-16 0c-13.3 0-24-10.7-24-24l0-16c0-13.3 10.7-24 24-24l16 0 0-16c0-13.3 10.7-24 24-24zm-8 24l0 24c0 4.4-3.6 8-8 8l-24 0c-4.4 0-8 3.6-8 8l0 16c0 4.4 3.6 8 8 8l24 0c4.4 0 8 3.6 8 8l0 24c0 4.4 3.6 8 8 8l16 0c4.4 0 8-3.6 8-8l0-24c0-4.4 3.6-8 8-8l24 0c4.4 0 8-3.6 8-8l0-16c0-4.4-3.6-8-8-8l-24 0c-4.4 0-8-3.6-8-8l0-24c0-4.4-3.6-8-8-8l-16 0c-4.4 0-8 3.6-8 8z"/></svg>

<svg xmlns="http://www.w3.org/2000/svg" viewBox="0 0 576 512"><!--! Font Awesome Pro 6.5.2 by @fontawesome - https://fontawesome.com License - https://fontawesome.com/license (Commercial License) Copyright 2024 Fonticons, Inc. --><path d="M256 56c0-30.9 25.1-56 56-56H520c30.9 0 56 25.1 56 56V456c0 30.9-25.1 56-56 56H304c3.7-4.9 6.8-10.3 9.3-16H520c22.1 0 40-17.9 40-40V400H328c-4.4 0-8-3.6-8-8s3.6-8 8-8H560V304H328c-4.4 0-8-3.6-8-8s3.6-8 8-8H560V56c0-22.1-17.9-40-40-40H312c-22.1 0-40 17.9-40 40v8c0 2.2-.9 4.2-2.4 5.7c-4.3-1.7-8.8-3.1-13.5-4c-.1-.5-.2-1.1-.2-1.6V56zM64 112c-26.5 0-48 21.5-48 48V352H272V160c0-26.5-21.5-48-48-48H64zM16 368v48H272V368H16zm256 64H16v16c0 26.5 21.5 48 48 48H224c26.5 0 48-21.5 48-48V432zM0 160c0-35.3 28.7-64 64-64H224c35.3 0 64 28.7 64 64V448c0 35.3-28.7 64-64 64H64c-35.3 0-64-28.7-64-64V160zm112 32c0-13.3 10.7-24 24-24h16c13.3 0 24 10.7 24 24v16h16c13.3 0 24 10.7 24 24v16c0 13.3-10.7 24-24 24H176v16c0 13.3-10.7 24-24 24H136c-13.3 0-24-10.7-24-24V272H96c-13.3 0-24-10.7-24-24V232c0-13.3 10.7-24 24-24h16V192zm24-8c-4.4 0-8 3.6-8 8v24c0 4.4-3.6 8-8 8H96c-4.4 0-8 3.6-8 8v16c0 4.4 3.6 8 8 8h24c4.4 0 8 3.6 8 8v24c0 4.4 3.6 8 8 8h16c4.4 0 8-3.6 8-8V264c0-4.4 3.6-8 8-8h24c4.4 0 8-3.6 8-8V232c0-4.4-3.6-8-8-8H168c-4.4 0-8-3.6-8-8V192c0-4.4-3.6-8-8-8H136zM424 72h16c13.3 0 24 10.7 24 24v16h16c13.3 0 24 10.7 24 24v16c0 13.3-10.7 24-24 24H464v16c0 13.3-10.7 24-24 24H424c-13.3 0-24-10.7-24-24V176H384c-13.3 0-24-10.7-24-24V136c0-13.3 10.7-24 24-24h16V96c0-13.3 10.7-24 24-24zm-8 24v24c0 4.4-3.6 8-8 8H384c-4.4 0-8 3.6-8 8v16c0 4.4 3.6 8 8 8h24c4.4 0 8 3.6 8 8v24c0 4.4 3.6 8 8 8h16c4.4 0 8-3.6 8-8V168c0-4.4 3.6-8 8-8h24c4.4 0 8-3.6 8-8V136c0-4.4-3.6-8-8-8H456c-4.4 0-8-3.6-8-8V96c0-4.4-3.6-8-8-8H424c-4.4 0-8 3.6-8 8z"/></svg>
